dist/assets/svg/form/date.svg

<svg xmlns="http://www.w3.org/2000/svg" width="15" height="15" fill="none" viewBox="0 0 15 15"><path fill="#030303" d="M13.585 1.21691H12.0982V.498732C12.0982.36646 12.045.239613 11.9502.146082 11.8555.052552 11.7269 0 11.5929 0 11.4589 0 11.3303.052552 11.2356.146082 11.1408.239613 11.0875.36646 11.0875.498732V1.21292H3.91146V.498732C3.91146.36646 3.85822.239613 3.76345.146082 3.66868.052552 3.54014 0 3.40611 0 3.27208 0 3.14354.052552 3.04877.146082 2.954.239613 2.90075.36646 2.90075.498732V1.21292H1.415C1.04059 1.21292.681447 1.35937.416228 1.62018.151009 1.88099.00133717 2.2349 0 2.6044V3.85619H14.996V2.6044C14.9936 2.23629 14.844 1.884 14.5798 1.62417 14.3155 1.36433 13.958 1.21795 13.585 1.21691ZM0 13.6086C.00133717 13.9781.151009 14.3321.416228 14.5929.681447 14.8537 1.04059 15.0001 1.415 15.0001H13.585C13.9594 15.0001 14.3186 14.8537 14.5838 14.5929 14.849 14.3321 14.9987 13.9781 15 13.6086V4.93066H0V13.6086ZM7.075 11.8681C7.11993 11.3986 7.26002 10.9428 7.48695 10.5278 7.71388 10.1128 8.02302 9.74698 8.396 9.45219 9.09541 8.72802 9.27835 8.50359 9.27835 7.93903 9.27835 7.51011 9.16616 7.17497 8.67192 7.17497 8.17769 7.17497 8.02709 7.53206 8.00384 8.10261H7.11138C7.08791 7.88932 7.11245 7.67355 7.18324 7.4707 7.25404 7.26785 7.36934 7.08292 7.52092 6.92914 7.6725 6.77535 7.85662 6.6565 8.06013 6.58105 8.26364 6.5056 8.48151 6.47542 8.6982 6.49268 8.90216 6.46457 9.10993 6.48291 9.30559 6.54629 9.50126 6.60966 9.67963 6.71641 9.82704 6.85833 9.97446 7.00025 10.087 7.17357 10.156 7.36504 10.2251 7.55652 10.2488 7.76103 10.2254 7.96295 10.2254 8.63226 10.0232 8.98738 9.26016 9.72451 8.78529 10.1283 8.40375 10.628 8.1413 11.1898H10.382L10.2567 11.9189H7.075V11.8681ZM4.67657 6.96749C5.047 6.91625 5.39635 6.76662 5.68728 6.5346H6.30281V11.9209H5.38104V7.53207C5.14897 7.58541 4.91179 7.61417 4.67354 7.61785L4.67657 6.96749Z"/></svg>

<svg xmlns="http://www.w3.org/2000/svg" width="15" height="15" fill="none" viewBox="0 0 15 15"><path fill="#030303" d="M13.585 1.217h-1.487V.499a.5.5 0 0 0-.148-.353.51.51 0 0 0-.714 0 .5.5 0 0 0-.149.353v.714H3.912V.499a.5.5 0 0 0-.148-.353.51.51 0 0 0-.714 0A.5.5 0 0 0 2.9.5v.714H1.415c-.374 0-.734.146-.999.407s-.415.615-.416.984v1.252h14.996V2.604a1.4 1.4 0 0 0-.416-.98 1.43 1.43 0 0 0-.995-.407M0 13.609c.001.37.151.723.416.984.265.26.625.407.999.407h12.17c.374 0 .734-.146.999-.407.265-.26.415-.615.416-.984V4.93H0zm7.075-1.74c.045-.47.185-.926.412-1.341a3.5 3.5 0 0 1 .909-1.076c.7-.724.882-.948.882-1.513 0-.429-.112-.764-.606-.764s-.645.357-.668.928H7.11a1.44 1.44 0 0 1 .41-1.174 1.48 1.48 0 0 1 1.177-.436 1.37 1.37 0 0 1 1.129.365 1.33 1.33 0 0 1 .398 1.105c0 .67-.202 1.024-.965 1.762A4.3 4.3 0 0 0 8.14 11.19h2.241l-.125.729H7.075zM4.677 6.966c.37-.05.72-.2 1.01-.432h.616v5.386H5.38V7.532q-.35.08-.707.086z"/></svg>
